X:1
T:Title
%%score { ( 1 4 ) | ( 2 3 ) }
L:1/8
M:6/8
K:Ab
V:1 treble nm="Grand Piano"
V:4 treble 
V:2 bass 
V:3 bass 
V:1
 z3 z2[Q:1/4=90] [CE] | [CA][CA][CA] [CA][DB][Ec] | [DB][A,FA][A,DF] [A,CE]2 [CA]/B/ | %3
 ccd e2 c/c/ | cBA B2 E | [CA][EA]B cBA | ABc [Fd]2 [Fd] | z3 z2 .A | %8
[M:4/4] cc- c/B[CA]/- [CA]2- [CA]/ z/ z |[M:3/4] c3 B AG | A6 | FF FF F[DG] | [EA]B c .B3 | %13
 [Ec]3 [DB] [FA][DF] | E6 |[M:13/16] EAc[Fe][Fd]3/2[FB] | %16
[M:5/8] AGB [CA]2[Q:1/4=89][Q:1/4=87][Q:1/4=86][Q:1/4=85][Q:1/4=83][Q:1/4=82][Q:1/4=81][Q:1/4=79][Q:1/4=78][Q:1/4=77][Q:1/4=75][Q:1/4=74][Q:1/4=73][Q:1/4=71][Q:1/4=70][Q:1/4=69] |] %17
V:2
 z3 z2 [A,,A,] | [A,,A,][A,,A,][A,,A,] [A,,A,][A,,A,][A,,A,] | z3 z2 A,[K:treble] | %3
 [A,E][A,E][A,B,A] [A,CA]2[K:bass] [A,E]/[A,E]/ | [A,E][G,B,E][F,B,=D] [E,G,E]2 [E,G,_D] | %5
 [A,,A,][C,A,][E,G,E][K:treble] [A,E][A,D][A,C] | [A,CE][G,B,E][A,_G][K:bass] [D,A,]2 [D,A,] | %7
 [A,,A,][B,,G,][C,A,] [D,A,]>[D,A,][D,A,] | %8
[M:4/4] [E,A,E][E,A,E]- [E,A,E]/[E,G,D][A,,A,]/- [A,,A,]2- [A,,A,]/ z/ z | %9
[M:3/4] [A,E]3 [E,G,D] [E,A,C][E,B,D] | z2 F, E,2 A,, | %11
 [D,A,D][D,A,D] [D,A,D][D,A,D] [D,A,D][B,,B,] | [C,A,][E,G,E] [A,E] .[E,G,E]3 | %13
 [A,,A,]3 [D,F,] [D,A,][D,A,] | [A,,A,]2 [C,A,] [E,G,]2 [E,B,D] | %15
[M:13/16][K:treble] [A,C][A,CE][A,_G][K:bass][D,A,][D,A,]3/2[D,D] | %16
[M:5/8] [E,CE][E,B,E][E,G,D] [A,,A,]2 |] %17
V:3
 x6 | x6 | [D,F,]D,D, A,,2 z/[K:treble] D/ | x5[K:bass] x | x6 | x3[K:treble] x3 | x3[K:bass] x3 | %7
 x6 |[M:4/4] x8 |[M:3/4] x6 | A,,6 | x6 | x6 | x6 | x6 |[M:13/16][K:treble] x3[K:bass] x7/2 | %16
[M:5/8] x5 |] %17
V:4
 x6 | x6 | x6 | x6 | x6 | x6 | x6 | [Ec][EB][EA] [FA]>[=EG]F/-[FB]/ |[M:4/4] x8 |[M:3/4] x6 | %10
 [A,C]2 D C2 [A,CE] | x6 | x6 | x6 | C2 C B,2 E |[M:13/16] x13/2 |[M:5/8] x5 |] %17

